!!!OTL: 645. Jst denn Lieben ein Verbrechen?
!!!ARE: Europa, Mitteleuropa, Deutschland; France, Elsass
!!!SCT: E0645
!!!TXL: @@DE
!!!YEM: Copyright 1995, estate of Helmut Schaffrath.
**kern	**text
*ICvox	*
!! Mixed meters:  3/4; 4/4
*M3/4	*
*k[]	*
*C:	*
=1	=1
!LO:TX:a:t=Bewegt.	!
!LO:TX:a:t=Melodie aus dem Elſaß. 1889.	!
{(<4g	Jſt
4cc)	.
4e	denn
=2	=2
2d	Lie-
4f	-ben
=3	=3
(<4d	ein
4b)	.
4a	Ver-
=4	=4
4g	-bre-
4e	-chen,
4r}	.
=5	=5
{(<4g	darf
4ee)	.
4cc	man
=6	=6
(<4g	denn
4e)	.
4g	nicht
=7	=7
(<4.b	ʒärt-
8a)	.
4g	-lich
=8	=8
2e	ſein?
4r}	.
=9	=9
{(<4g	Nicht
4cc)	.
4e	von
=10	=10
2d	ſei-
4f	-nem
=11	=11
(<4d	Lieb-
4b)	.
4a	-chen
=12	=12
4g	ſpre-
4e	-chen,
4r}	.
=13	=13
{(<4g	ſich
4ee)	.
4cc	nicht
=14	=14
(<4g	ſei-
4e)	.
4g	-ner
=15	=15
(<4.b	Lie-
8a)	.
4g	-be
=16	=16
2e}	freun?
{8d	Dann
8e	freut
=17	=17
*M4/4	*
*met(c)	*
4f	mich
4g	kein
4.b	Glück
8a	des
=18	=18
(8gL	Le-
8ccJ)	.
2ee}	-bens,
{8dd	dann
8cc	be-
=19	=19
4b	-klag
4d	ich
(4f	die
8a)	.
8g	Na-
=20	=20
2e	-tur
4r}	.
{8g	Hab
8g	ich
=21	=21
4a	denn
4a	ein
(8ddL	Herʒ
8ccJ)	.
(8bL	ver-
8aJ)	.
=22	=22
(8eL	-ge-
8aJ)	.
4g	-bens
4r}	.
{8g	o-
8g	-der
=23	=23
4a	ſtets
4g	ʒu
4a	kla-
4b	-gen
=24	=24
2cc	nur?
!LO:N:vis=4	!
2r}	.
==	==
!!!AGN: Liebes - Lied
!!!ONB: ESAC (Essen Associative Code) Database: ERK2
!!!AMT: irregular
!!!AIN: vox
!!!EED: Helmut Schaffrath
!!!EEV: 1.0
!!!RDF**kern: < = below
!!!GTL: Liebeslieder [Neuere (aus dem 18. bis 19. Jahrh.) - Liebeslust]
!!!URL-scan: https://rosdok.uni-rostock.de/mcrviewer/recordIdentifier/rosdok_ppn745177662/iview2/phys_0457.iview2?x=48.368023684967966&y=1264.6773121629376&scale=0.7029437510502773&rotation=0&layout=singlePageLayout
!!!ENC: Anna Maria Matuszewska
!!!EEV: 2024/12/12
*-	*-
